src/assets/metronic/worbby/global/img/icon-trash.svg

<?xml version="1.0" encoding="UTF-8"?>
<svg width="13px" height="16px" viewBox="0 0 13 16" version="1.1" xmlns="http://www.w3.org/2000/svg" xmlns:xlink="http://www.w3.org/1999/xlink">
    <!-- Generator: Sketch 42 (36781) - http://www.bohemiancoding.com/sketch -->
    <title>Combined Shape</title>
    <desc>Created with Sketch.</desc>
    <defs></defs>
    <g id="Desktop" stroke="none" stroke-width="1" fill="none" fill-rule="evenodd">
        <g id="Edit-Profile-2" transform="translate(-832.000000, -558.000000)" fill="#DE5042">
            <g id="icon-delete" transform="translate(832.000000, 558.000000)">
                <path d="M4.82814428,1.33333333 L1.17659159,1.33333333 C0.525716424,1.33333333 0,1.930287 0,2.66666667 L0,4 L13,4 L13,2.66666667 C13,1.9251531 12.473222,1.33333333 11.8234084,1.33333333 L8.17185572,1.33333333 C7.92849784,0.556538418 7.27185658,0 6.5,0 C5.72814342,0 5.07150216,0.556538418 4.82814428,1.33333333 L4.82814428,1.33333333 Z M1.18181818,5.33333333 L11.8181818,5.33333333 L11.8181818,14.6706265 C11.8181818,15.4048192 11.2907229,16 10.6392654,16 L2.36073458,16 C1.70963703,16 1.18181818,15.3959516 1.18181818,14.6706265 L1.18181818,5.33333333 Z M3.54545455,7.32134024 L3.54545455,14.0119931 C3.54545455,14.362826 3.81001356,14.6666667 4.13636364,14.6666667 C4.45316939,14.6666667 4.72727273,14.3735593 4.72727273,14.0119931 L4.72727273,7.32134024 C4.72727273,6.9705073 4.46271372,6.66666667 4.13636364,6.66666667 C3.81955788,6.66666667 3.54545455,6.95977401 3.54545455,7.32134024 Z M5.90909091,7.32134024 L5.90909091,14.0119931 C5.90909091,14.362826 6.17364992,14.6666667 6.5,14.6666667 C6.81680575,14.6666667 7.09090909,14.3735593 7.09090909,14.0119931 L7.09090909,7.32134024 C7.09090909,6.9705073 6.82635008,6.66666667 6.5,6.66666667 C6.18319425,6.66666667 5.90909091,6.95977401 5.90909091,7.32134024 Z M8.27272727,7.32134024 L8.27272727,14.0119931 C8.27272727,14.362826 8.53728628,14.6666667 8.86363636,14.6666667 C9.18044212,14.6666667 9.45454545,14.3735593 9.45454545,14.0119931 L9.45454545,7.32134024 C9.45454545,6.9705073 9.18998644,6.66666667 8.86363636,6.66666667 C8.54683061,6.66666667 8.27272727,6.95977401 8.27272727,7.32134024 Z" id="Combined-Shape"></path>
            </g>
        </g>
    </g>
</svg>

<svg xmlns="http://www.w3.org/2000/svg" width="13" height="16"><path fill="#DE5042" fill-rule="evenodd" d="M4.828 1.3333H1.1767C.5256 1.3333 0 1.9303 0 2.6667V4h13V2.6667c0-.7415-.5268-1.3334-1.1766-1.3334H8.172C7.9284.5565 7.272 0 6.5 0c-.772 0-1.4285.5565-1.672 1.3333zm-3.6462 4h10.6364v9.3373c0 .7342-.5275 1.3294-1.179 1.3294H2.3608c-.651 0-1.179-.604-1.179-1.3294V5.3333zm2.3637 1.988v6.6907c0 .3508.2645.6547.591.6547.3167 0 .5908-.293.5908-.6547V7.3213c0-.3508-.2646-.6546-.591-.6546-.3167 0-.5908.293-.5908.6546zm2.3636 0v6.6907c0 .3508.2646.6547.591.6547.3168 0 .591-.293.591-.6547V7.3213c0-.3508-.2646-.6546-.591-.6546-.3168 0-.591.293-.591.6546zm2.3637 0v6.6907c0 .3508.2646.6547.591.6547.3167 0 .5908-.293.5908-.6547V7.3213c0-.3508-.2645-.6546-.591-.6546-.3167 0-.5908.293-.5908.6546z"/></svg>
